!!!COM: Frescobaldi, Girolamo
!!!CDT: 1583///-1643
!!!ONM: No. 10
!!!OTL: No. 10: Canzon Terza &agrave; 2 Bassi
!!!OPR: Canzoni da sonare a una, due, tre et quattro, libro primo
!!!PPP: Venezia
!!!PDT: 1634
!!!URL: http://icking-music-archive.org/ByComposer/Frescobaldi.html
!!!ONB: Andrea Friggi, ed.
**kern	**kern	**kern
!Basso ad Organo	!Basso Secondo	!Basso Primo
*staff3	*staff2	*staff1
*Icello	*Icello	*Icello
*clefF4	*clefF4	*clefF4
*k[b-]	*k[b-]	*k[b-]
*M4/4	*M4/4	*M4/4
*met(C)	*met(C)	*met(C)
*MM120	*MM120	*MM120
=1-	=1-	=1-
2F\	2F\	1r
4A\	4A\	.
4c\	4c\	.
=2	=2	=2
4B-\	4B-\	1r
8A\L	8A\L	.
8G\J	8G\J	.
4A\	4A\	.
4F\	4F\	.
=3	=3	=3
2C/	2C/	2C/
4E\	2r	4E\
4G\	.	4G\
=4	=4	=4
4F\	2r	4F\
8E\L	.	8E\L
8D\J	.	8D\J
4E\	4r	4E\
4C/	4c\	4C/
=5	=5	=5
2F\	4F\	2F\
.	8G\L	.
.	8A\J	.
2BB-/	8B-\L	2BB-/
.	8A\	.
.	8G\	.
.	8F\J	.
=6	=6	=6
4C/	4E\	2r
4AA/	2F\	.
2C/	.	4r
.	4E\	4C/
=7	=7	=7
4FF/	2F\	4FF/
8GG/L	.	8GG/L
8AA/J	.	8AA/J
4BB-/	2r	8BB-/L
.	.	8AA/
4GG/	.	8GG/
.	.	8FF/J
=8	=8	=8
4C/	1r	4EE/
4FF/	.	4FF/
2C/	.	2C/
=9	=9	=9
2F\	2F\	2FF/
4A\	4A\	2r
4c\	4c\	.
=10	=10	=10
4B-\	4B-\	1r
8A\L	8A\L	.
8G\J	8G\J	.
4A\	4A\	.
4F\	4F\	.
=11	=11	=11
2G\	4G\	2r
.	8F\L	.
.	8E\J	.
4D\	8D\L	4r
.	8E\J	.
[4F\	[4F\	4F\
=12	=12	=12
4F\]	4F\]	4G\
4C/	4C/	4c\
2G\	2G\	4B-\
.	.	8A\L
.	.	8G\J
=13	=13	=13
4A\	4r	4A\
4F\	4F\	4F\
2BB-/	4BB-/	2B-\
.	8C/L	.
.	8D/J	.
=14	=14	=14
2E-\	8E-/L	1r
.	8D/	.
.	8C/	.
.	8BB-/J	.
4C/	4C/	.
4D\	4D\	.
=15	=15	=15
2GG/	2GG/	4r
.	.	4G\
2C/	2C/	4C/
.	.	8D\L
.	.	8E\J
=16	=16	=16
4F\	2r	8F\L
.	.	8E\
4D\	.	8D\
.	.	8C\J
4BB-/	4r	4BB-/
[4C/	4C/	[4C/
=17	=17	=17
4C/]	4E\	4C/]
4GG/	4G\	4GG/
4AA/	4F\	4AA/
4BB-/	8E\L	4BB-/
.	8D\J	.
=18	=18	=18
4C/	4C/	4C/
4FF/	4F\	4FF/
2C/	2C/	2C/
=19	=19	=19
1F	1F	1FF
=20	=20	=20
1F	1r	2r
.	.	2F\
=21	=21	=21
2G\	1r	2G\
2A\	.	2A\
=22	=22	=22
2.B-\	1r	2.B-\
4A\	.	4A\
=23	=23	=23
2G\	1r	2G\
2F#\	.	2F#\
=24	=24	=24
1G	2r	1G
.	2GG/	.
=25	=25	=25
2C/	2C/	1r
2D\	2D\	.
=26	=26	=26
2.E-\	2.E-\	1r
4D\	4D\	.
=27	=27	=27
2C/	2C/	2r
2BBn/	2BBn/	2GG/
=28	=28	=28
2C/	2C/	2C/
2D\	2r	2D\
=29	=29	=29
4E-\	1r	4E-\
4D\	.	4D\
4C/	.	4C/
4BB-/	.	4BB-/
=30	=30	=30
2AA/	1r	2AA/
2GG/	.	2GG/
=31	=31	=31
2.D\	1r	2.D\
4C/	.	4C/
=32	=32	=32
2BBn/	1r	2BBn/
2C/	.	2C/
=33	=33	=33
1AA	1r	1AA
=34	=34	=34
1GG	1r	1GG
=35	=35	=35
4FF/	4F\	2FF/
4F\	8.A\L	.
.	16c\Jk	.
4B-\	4B-\	2r
4G\	8.G\L	.
.	16B-\Jk	.
=36	=36	=36
4A\	4A\	4r
4E\	4E\	4c\
4F\	4F\	4c\
4G\	4G\	4Bn\
=37	=37	=37
4c\	2C/	4c\
8B-\L	.	8B-\L
8A\J	.	8A\J
4B-\	2r	4B-\
8c\L	.	8c\L
8B-\J	.	8B-\J
=38	=38	=38
4A\	4r	4.A\
4F\	4F\	.
.	.	16B-\LL
.	.	16A\JJ
2C/	4F\	2G\
.	4E\	.
=39	=39	=39
4F\	4F\	2F\
8E\L	8E\L	.
8D\J	8D\J	.
4E\	4E\	2r
8F\L	8F\L	.
8E\J	8E\J	.
=40	=40	=40
4D\	4D\	2r
4GG/	4G\	.
2C/	2C/	4C/
.	.	8.E\L
.	.	16G\Jk
=41	=41	=41
*	*clefC4	*
4F\	2r	4F\
4D\	.	8.D\L
.	.	16F\Jk
4E\	4r	4E\
4F\	4d\	4F\
=42	=42	=42
4G\	4d\	4G\
4A\	4c#\	4A\
2D\	4d\	2D\
.	8cn\L	.
.	8B-\J	.
=43	=43	=43
2AA/	4c\	1r
.	8d\L	.
.	8c\J	.
2GG/	4B-\	.
.	8c\L	.
.	8B-\J	.
=44	=44	=44
2FF/	2A\	4F\
.	.	8.A\L
.	.	16c\Jk
2GG/	2G/	4B-\
.	.	8.G\L
.	.	16B-\Jk
=45	=45	=45
4AA/	4r	4A\
4D\	4B-\	4D\
4E-\	4B-\	4E-\
4F\	4A\	4F\
=46	=46	=46
4B-\	4B-\	2BB-/
8A\L	8A/L	.
8G\J	8G/J	.
4A\	4A\	2r
8B-\L	8B-\L	.
8A\J	8A\J	.
=47	=47	=47
4G\	4G/	1r
8A\L	8A/L	.
8G\J	8G/J	.
*	*clefF4	*
2F\	2F\	.
=48	=48	=48
4C/	4C/	4r
4E\	8.E\L	4c\
.	16G\Jk	.
4F\	4F\	4c\
4D\	8.D\L	4Bn\
.	16F\Jk	.
=49	=49	=49
4E\	4E\	4c\
4F#\	4F#\	8B-\L
.	.	8A\J
2G\	2G\	4.G\
.	.	8B-\
=50	=50	=50
4A\	1r	4A\
8G\L	.	8G\L
8F\J	.	8F\J
4G\	.	4G\
4A\	.	4A\
=51	=51	=51
4D\	4r	4D\
4BB-/	4G\	4BB-/
4C/	4G\	4C/
4D\	4F#\	4D\
=52	=52	=52
4G\	4G\	2GG/
8F\L	8F\L	.
8E\J	8E\J	.
4F\	4F\	2r
8E\L	8E\L	.
8D\J	8D\J	.
=53	=53	=53
2E-\	4.E-\	1r
.	16D/LL	.
.	16C/JJ	.
2BBn/	2BBn/	.
=54	=54	=54
2C/	2C/	4C/
.	.	8.E\L
.	.	16G\Jk
4F\	2r	4F\
4D\	.	8.D\L
.	.	16F\Jk
=55	=55	=55
4E\	4r	4E\
4AA/	4F\	4AA/
4BB-/	4F\	4BB-/
4C/	4E\	4C/
=56	=56	=56
2F\	4F\	2FF/
.	8.A\L	.
.	16c\Jk	.
4B-\	4B-\	2r
4G\	8.G\L	.
.	16B-\Jk	.
=57	=57	=57
4A\	4A\	4r
4E\	4E\	4c\
4F\	4F\	4c\
4G\	4G\	4Bn\
=58	=58	=58
2C/	2C/	4c\
.	.	8B-\L
.	.	8A\J
2BB-/	8r	2B-\
.	8BB-/L	.
.	8D/	.
.	8BB-/J	.
=59	=59	=59
2F\	2F\	8r
.	.	8F\L
.	.	8A\
.	.	8F\J
4E\	8r	2c\
.	8E\L	.
8D/L	8D\	.
8C/J	8C\J	.
=60	=60	=60
2D\	2D\	8r
.	.	8D\L
.	.	8F\
.	.	8D\J
4BB-/	8r	2G\
.	8BB-/L	.
8AA/L	8AA/	.
8GG/J	8GG/J	.
=61	=61	=61
2C/	2C/	8r
.	.	8C/L
.	.	8E/
.	.	8C/J
4AA/	8r	[2F\
.	8AA/L	.
8GG/L	8GG/	.
8FF/J	8FF/J	.
=62	=62	=62
1C	1C	2F\]
.	.	2E\
=63	=63	=63
1FF	1FF	1F
=64	=64	=64
*M3/1	*M3/1	*M3/1
1.F	0.r	1.F
2G\	.	2G\
1A	.	1A
=65	=65	=65
1D	0.r	1D
1G	.	1G
1F#	.	1F#
=66	=66	=66
0G	1.GG	0.G
.	2AA/	.
1BB-	1BB-	.
=67	=67	=67
1C	1C	0.r
1E-	1E-	.
1D	1D	.
=68	=68	=68
0GG	0GG	2.G\
.	.	4A\
.	.	2B-\
.	.	2G\
1D	1r	2D\
.	.	2E\
=69	=69	=69
0F	2.F\	0F
.	4G\	.
.	2A\	.
.	2F\	.
1C	2C/	1r
.	2D\	.
=70	=70	=70
0E-	1.E-	0.r
.	2E-\	.
1D	1D	.
=71	=71	=71
0C	0C	0.r
1FF	1FF	.
=72	=72	=72
*	*	*clefC4
0BB-	0BB-	2.B-\
.	.	4c\
.	.	2d\
.	.	2B-\
1F	1r	2F/
.	.	2G/
=73	=73	=73
1.AA	1.AA	0A
2BB-/	2BB-/	.
1C	1C	1r
=74	=74	=74
1D	1D	0.r
1GG	1GG	.
1AA	1AA	.
=75	=75	=75
0.D	0D	2.d\
.	.	4e\
.	.	2f\
.	.	2d\
.	1r	2A\
.	.	2B-\
=76	=76	=76
1.C	2.C/	0c
.	4D\	.
.	2E-\	.
2C/	2C/	.
2GG/	2GG/	1r
2AA/	2AA/	.
=77	=77	=77
*	*	*clefF4
0BB-	0BB-	1.BB-
.	.	2C/
1D	1r	1D
=78	=78	=78
1E-	0.r	1E-
1C	.	1C
1D	.	1D
=79	=79	=79
*met(C)	*met(C)	*met(C)
*M4/4	*M4/4	*M4/4
2GG/	2r	1GG
2G\	2G\	.
=80	=80	=80
1F#	1F#	1r
=81	=81	=81
2G\	2G\	1r
2A\	2A\	.
=82	=82	=82
2B-\	1B-	2r
2BB-/	.	2BB-/
=83	=83	=83
1AA	1r	1AA
=84	=84	=84
2BB-/	2r	2BB-/
2C/	2C/	2C/
=85	=85	=85
1BBn	1BBn	1G
=86	=86	=86
2C/	2C/	4r
.	.	4E\
2AA/	2AA/	[2A\
=87	=87	=87
1BB-	1BB-	2A\]
.	.	2G\
=88	=88	=88
*M6/4	*M6/4	*M6/4
2.AA/	2.AA/	4A\
.	.	4E\
.	.	4A\
2D\	2.r	4F\
.	.	4E\
4D\	.	4D\
=89	=89	=89
2C/	4c\	2.C/
.	4G\	.
4C/	4c\	.
2.BB-/	4B-\	2.r
.	4A\	.
.	4G\	.
=90	=90	=90
2.F\	4F\	1.r
.	4E\	.
.	4D\	.
4C/	4C/	.
4BB-/	4BB-/	.
4AA/	4AA/	.
=91	=91	=91
2GG/	2.GG/	4G\
.	.	4D\
4G\	.	4G\
4F\	2.r	4F\
4E\	.	4E\
4D\	.	4D\
=92	=92	=92
2.E\	1.r	4E\
.	.	4F\
.	.	4G\
2.C/	.	4C/
.	.	4D\
.	.	4E\
=93	=93	=93
2.FF/	4F\	2.F\
.	4C/	.
.	4D\	.
4AA/	4AA/	2.r
4BB-/	4BB-/	.
4C/	4C/	.
=94	=94	=94
2.GG/	2.GG/	4G\
.	.	4D\
.	.	4E\
2.BB-/	2.r	4BB-/
.	.	4C/
.	.	4D\
=95	=95	=95
4GG/	2.r	4GG/
4AA/	.	4AA/
4BB-/	.	4BB-/
2.C/	4c\	2.C/
.	4G\	.
.	4A\	.
=96	=96	=96
4E\	4E\	2.r
4F\	4F\	.
4G\	4G\	.
4A\	4A\	4c\
4E\	4E\	4G\
4F\	4F\	4A\
=97	=97	=97
2.C/	4C/	4E\
.	4D\	4F\
.	4E\	4G\
2.FF/	4F\	4A\
.	4A\	4G\
.	4B-\	4F\
=98	=98	=98
2.C/	4c\	4E\
.	4G\	4F\
.	4A\	4E\
4D\	4B-\	4D\
4C/	4F\	4C/
4BB-/	4G\	4BB-/
=99	=99	=99
4AA/	4A\	4AA/
4GG/	4E\	4GG/
4FF/	4F\	4FF/
2EE/	4G\	2EE/
.	4F\	.
4FF/	4E\	4FF/
=100	=100	=100
2.GG/	4D\	2.GG/
.	2GG/	.
2.GG/	2G\	2.GG/
.	4G\	.
=101	=101	=101
*met(C)	*met(C)	*met(C)
*M4/4	*M4/4	*M4/4
1C	1C	1C
=102	=102	=102
1D	2r	1r
.	2D\	.
=103	=103	=103
1AA	2AA/	1r
.	4AA/	.
.	4AA/	.
=104	=104	=104
1BB-	2.BB-/	1r
.	8AA/L	.
.	8GG/J	.
=105	=105	=105
2FF/	1FF	4r
.	.	8F\L
.	.	8G\J
2F\	.	8A\L
.	.	8A\
.	.	8A\
.	.	8B-\J
=106	=106	=106
2C/	1r	4c\
.	.	8A\L
.	.	8c\J
4.BB-/	.	8B-\L
.	.	8c\
.	.	8B-\
8AA/	.	8A\J
=107	=107	=107
2GG/	1r	4G\
.	.	4GG/
2C/	.	4.C/
.	.	8C/
=108	=108	=108
2FF/	4r	2FF/
.	8F\L	.
.	8G\J	.
4AA/	8A\L	4r
.	8A\	.
4FF/	8A\	4F\
.	8B-\J	.
=109	=109	=109
1C	4c\	2C/
.	8C/L	.
.	8D/J	.
.	8E\L	4C/
.	8G\	.
.	8F\	4C/
.	8E\J	.
=110	=110	=110
1D	4D\	2.D\
.	8D\L	.
.	8E\J	.
.	8F\L	.
.	8F\	.
.	8F\	8C/L
.	8G\J	8BB-/J
=111	=111	=111
2AA/	4A\	2AA/
.	4c\	.
4BB-/	4B-\	2r
4AA/	4A\	.
=112	=112	=112
2GG/	4G\	2r
.	4GG/	.
[2C/	2C/	4r
.	.	8C/L
.	.	8D/J
=113	=113	=113
2C/]	1r	8E\L
.	.	8E\
.	.	8E\
.	.	8F\J
4G\	.	4G\
8F\L	.	8F\L
8E\J	.	8E\J
=114	=114	=114
4F\	4r	2F\
4FF/	8FF/L	.
.	8GG/J	.
4.AA/	8AA/L	4r
.	8AA/	.
.	8AA/	4A\
8BB-/	8BB-/J	.
=115	=115	=115
2C/	2C/	2E\
2E\	2r	4E\
.	.	4E\
=116	=116	=116
2.F\	4r	2.F\
.	8F\L	.
.	8G\J	.
.	8A\L	.
.	8A\	.
8E\L	8A\	8E\L
8D\J	8B-\J	8D\J
=117	=117	=117
2.C/	2c\	4C/
.	.	8C/L
.	.	8D/J
.	2C/	8E\L
.	.	8E\
8BB-/L	.	8E\
8AA/J	.	8F\J
=118	=118	=118
1GG	2GG/	4G\
.	.	8D\L
.	.	8G\J
.	4GG/	4F\
.	4GG/	4E\
=119	=119	=119
1D	2.D\	2D\
.	.	4r
.	8C/L	8F\L
.	8BB-/J	8G\J
=120	=120	=120
2.AA/	2AA/	8A\L
.	.	8A\
.	.	8A\
.	.	8B-\J
.	2r	4c\
4AA/	.	8A\L
.	.	8c\J
=121	=121	=121
2.BB-/	4r	2B-\
.	8BB-/L	.
.	8C/J	.
.	8D\L	2r
.	8D\	.
8AA/L	8D\	.
8GG/J	8E\J	.
=122	=122	=122
2FF/	4F\	2F\
.	8C\L	.
.	8F\J	.
[2C/	4E\	2C/
.	4D\	.
=123	=123	=123
2C/]	2C/	4C/
.	.	4C/
[2D\	4r	[2D\
.	8F\L	.
.	8G\J	.
=124	=124	=124
2D\]	8A\L	4D\]
.	8A\	.
.	8A\	8C/L
.	8B-\J	8BB-/J
2AA/	4c\	2AA/
.	4A\	.
=125	=125	=125
1BB-	4r	2.BB-/
.	8BB-/L	.
.	8C/J	.
.	8D\L	.
.	8D\	.
.	8D\	8AA/L
.	8E\J	8GG/J
=126	=126	=126
2FF/	4.F\	2FF/
.	8FF/	.
2AA/	4AA/	2F\
.	4BB-/	.
=127	=127	=127
1C	1C	1C
=128	=128	=128
0FF	0FF	0F
==	==	==
*-	*-	*-
!!!ENC: Craig Stuart Sapp
!!!END: 2004/12/14/
